ui_kit/lib/assets/icons/send.svg

<svg width="24" height="24" viewBox="0 0 24 24" fill="none" xmlns="http://www.w3.org/2000/svg">
<path fill-rule="evenodd" clip-rule="evenodd" d="M4.70061 3.19499C5.09443 3.12479 5.50039 3.18239 5.85915 3.35937L5.86705 3.36326L20.1275 10.6076C20.3434 10.7174 20.525 10.8849 20.6517 11.0914C20.7769 11.2957 20.8439 11.5302 20.8453 11.7697C20.8453 11.7722 20.8453 11.7747 20.8453 11.7772C20.8453 11.7781 20.8453 11.779 20.8453 11.7798C20.8449 12.0213 20.7779 12.2579 20.6517 12.4638C20.525 12.6703 20.3437 12.8377 20.1279 12.9475L5.85917 20.2056C5.50042 20.3826 5.09443 20.4402 4.70061 20.37C4.30678 20.2998 3.94573 20.1055 3.67021 19.8154C3.3947 19.5254 3.21917 19.1548 3.16928 18.7579C3.11938 18.361 3.19774 17.9585 3.3929 17.6093C3.39773 17.6007 3.40273 17.5921 3.4079 17.5837L6.96156 11.7776L3.4082 5.98174C3.40292 5.97314 3.39782 5.96443 3.3929 5.95562C3.19774 5.60642 3.11938 5.20395 3.16928 4.80704C3.21917 4.41013 3.3947 4.03958 3.67021 3.74954C3.94572 3.45951 4.30678 3.26519 4.70061 3.19499ZM18.3227 11.0272L5.19264 4.70317C5.1216 4.66889 5.04153 4.65786 4.96383 4.67171C4.88506 4.68575 4.81285 4.72462 4.75775 4.78262C4.70265 4.84063 4.66754 4.91474 4.65756 4.99412C4.64804 5.06983 4.66186 5.14656 4.69702 5.21408L8.4361 11.0272H18.3227ZM8.39893 12.5272H18.3232L5.1925 18.8618C5.1215 18.8961 5.04148 18.9071 4.96383 18.8932C4.88506 18.8792 4.81285 18.8403 4.75775 18.7823C4.70265 18.7243 4.66754 18.6502 4.65756 18.5708C4.64804 18.4951 4.66188 18.4183 4.69712 18.3507L8.39893 12.5272Z" fill="white"/>
</svg>

<svg xmlns="http://www.w3.org/2000/svg" width="24" height="24" fill="none" viewBox="0 0 24 24"><path fill="#fff" fill-rule="evenodd" d="M4.7 3.195c.394-.07.8-.013 1.16.164l.007.004 14.26 7.245a1.314 1.314 0 0 1 .718 1.162v.01a1.313 1.313 0 0 1-.717 1.168L5.859 20.206a1.875 1.875 0 0 1-2.451-2.622l3.554-5.806-3.554-5.796A1.875 1.875 0 0 1 4.7 3.195Zm13.623 7.832L5.193 4.703a.375.375 0 0 0-.496.511l3.74 5.813h9.886Zm-9.924 1.5h9.924l-13.13 6.335a.374.374 0 0 1-.496-.511L8.4 12.527Z" clip-rule="evenodd"/></svg>
